images/bnt.svg

<svg height="250" viewBox="0 0 250 250" width="250" xmlns="http://www.w3.org/2000/svg"><path d="m250 125c0 69.035156-55.964844 125-125 125s-125-55.964844-125-125 55.964844-125 125-125 125 55.964844 125 125zm0 0" fill="#000d2b"/><path d="m124.375 45.9375-35.296875 20.679688 35.296875 20.6875 35.960938-20.6875zm5.804688 110.421875v41.367187l47.945312-27.351562v-41.375zm35.960937-76.734375v41.375l-35.96875 20.6875v-41.375zm-86.578125 41.375 35.96875 20.6875v-41.375l-35.96875-20.6875zm0 56.046875 35.96875 20.679687v-41.367187l-35.96875-20.679687zm0 0" fill="#fff"/></svg>

<svg xmlns="http://www.w3.org/2000/svg" xmlns:xlink="http://www.w3.org/1999/xlink" width="250px" height="250px" viewBox="0 0 250 250" version="1.1">
<g id="surface1">
<path style=" stroke:none;fill-rule:nonzero;fill:rgb(0%,5.098039%,16.862746%);fill-opacity:1;" d="M 250 125 C 250 194.035156 194.035156 250 125 250 C 55.964844 250 0 194.035156 0 125 C 0 55.964844 55.964844 0 125 0 C 194.035156 0 250 55.964844 250 125 Z M 250 125 "/>
<path style=" stroke:none;fill-rule:nonzero;fill:rgb(100%,100%,100%);fill-opacity:1;" d="M 124.375 45.9375 L 89.078125 66.617188 L 124.375 87.304688 L 160.335938 66.617188 Z M 130.179688 156.359375 L 130.179688 197.726562 L 178.125 170.375 L 178.125 129 Z M 166.140625 79.625 L 166.140625 121 L 130.171875 141.6875 L 130.171875 100.3125 Z M 79.5625 121 L 115.53125 141.6875 L 115.53125 100.3125 L 79.5625 79.625 Z M 79.5625 177.046875 L 115.53125 197.726562 L 115.53125 156.359375 L 79.5625 135.679688 Z M 79.5625 177.046875 "/>
</g>
</svg>
